X: 145125
T: WEST'S HORNPIPE
R: "Hornpipe."
R: Hornpipe.
%R: hornpipe, reel
B: James Kerr "Merry Melodies" v.1 p.45 s.1 #25
Z: 2016 John Chambers <jc:trillian.mit.edu>
M: C
L: 1/8
K: D
uA2 |:\
d2(FG) AFAF | d2(FG) AFAF | BAGF E2 \
[1 (ef) | gfed cABc :|\
[2 (eg) | fdec d2 |:\
(de) |\
f2(df) dfdf |
e2(ce) cece |\
f2(df) dfdf | edcB A2(Bc) |\
dBdB cAcA | dBdB cAcA |\
afge fdec | d2d2d2 :|

%%sep 1 1 500
%%sep 1 1 500

